img/content/mdi-light_heart.svg

<svg width="43" height="43" viewBox="0 0 43 43" fill="none" xmlns="http://www.w3.org/2000/svg">
    <path d="M7.60367 21.9515C6.83621 21.1839 6.24175 20.261 5.86015 19.2448C5.47854 18.2286 5.31862 17.1425 5.39111 16.0594C5.46359 14.9764 5.7668 13.9213 6.28041 12.965C6.79401 12.0087 7.50615 11.1733 8.36905 10.5147C9.23196 9.85617 10.2257 9.38973 11.2836 9.14666C12.3416 8.9036 13.4392 8.88953 14.503 9.10541C15.5669 9.32129 16.5722 9.76212 17.4517 10.3983C18.3312 11.0346 19.0645 11.8515 19.6025 12.7943H21.6055C22.1435 11.8515 22.8768 11.0346 23.7563 10.3983C24.6358 9.76212 25.6412 9.32129 26.705 9.10541C27.7688 8.88953 28.8665 8.9036 29.9244 9.14666C30.9823 9.38973 31.9761 9.85617 32.839 10.5147C33.7019 11.1733 34.414 12.0087 34.9276 12.965C35.4412 13.9213 35.7444 14.9764 35.8169 16.0594C35.8894 17.1425 35.7295 18.2286 35.3479 19.2448C34.9663 20.261 34.3718 21.1839 33.6043 21.9515L20.604 34.9554L7.60367 21.9533V21.9515ZM34.8693 23.2236C35.7868 22.3059 36.5046 21.2084 36.9774 19.9999C37.4503 18.7914 37.6679 17.4981 37.6167 16.2014C37.5655 14.9047 37.2465 13.6326 36.6798 12.4652C36.1132 11.2977 35.3111 10.2602 34.3239 9.41776C33.3368 8.57534 32.1861 7.94628 30.9441 7.57015C29.7021 7.19402 28.3957 7.07895 27.1071 7.23219C25.8185 7.38542 24.5755 7.80364 23.4563 8.46054C22.3372 9.11744 21.366 9.99881 20.604 11.0492C19.842 9.99881 18.8709 9.11744 17.7517 8.46054C16.6325 7.80364 15.3896 7.38542 14.1009 7.23219C12.8123 7.07895 11.5059 7.19402 10.2639 7.57015C9.0219 7.94628 7.87116 8.57534 6.88406 9.41776C5.89696 10.2602 5.09485 11.2977 4.52818 12.4652C3.96151 13.6326 3.64253 14.9047 3.59131 16.2014C3.5401 17.4981 3.75775 18.7914 4.23057 19.9999C4.7034 21.2084 5.42117 22.3059 6.33876 23.2236L20.604 37.4871L34.8693 23.2254V23.2236Z"
          fill="#C4C4C4"/>
</svg>

<svg width="43" height="43" fill="none" xmlns="http://www.w3.org/2000/svg"><path d="M7.604 21.951a7.614 7.614 0 1111.998-9.157h2.003a7.617 7.617 0 0111.234-2.28 7.615 7.615 0 01.765 11.438l-13 13.003-13-13.002v-.002zm27.265 1.273a9.407 9.407 0 10-14.265-12.175A9.406 9.406 0 106.339 23.224l14.265 14.263 14.265-14.262v-.001z" fill="#C4C4C4"/></svg>
